resources/logo.svg

<?xml version="1.0" encoding="utf-8"?>
<svg id="Layer_1" enable-background="new 0 0 512 512" height="512" viewBox="0 0 512 512" width="512" xmlns="http://www.w3.org/2000/svg" xmlns:xlink="http://www.w3.org/1999/xlink" xmlns:bx="https://boxy-svg.com">
  <defs>
    <linearGradient id="gradient-2" bx:pinned="true">
      <stop offset="0" style="stop-color: rgb(235, 235, 238);"/>
      <stop offset="1" style="stop-color: rgb(33, 181, 198);"/>
    </linearGradient>
    <linearGradient id="gradient-0" bx:pinned="true">
      <stop offset="0" style="stop-color: rgb(33, 181, 198);"/>
      <stop offset="1" style="stop-color: rgb(21, 61, 103);"/>
    </linearGradient>
    <linearGradient id="gradient-0-0" gradientUnits="userSpaceOnUse" x1="347" y1="121" x2="347" y2="451" xlink:href="#gradient-0"/>
    <linearGradient id="gradient-0-1" gradientUnits="userSpaceOnUse" x1="347" y1="271" x2="347" y2="301" xlink:href="#gradient-0"/>
  </defs>
  <path d="m392 91v-90h-347c-24.814 0-45 20.186-45 45s20.186 45 45 45z" style="fill: rgb(21, 61, 103);"/>
  <path d="m362 286c0-8.276-6.738-15-15-15s-15 6.724-15 15 6.738 15 15 15 15-6.724 15-15z" style="paint-order: fill; fill: url(#gradient-0-1);"/>
  <path d="m380.223 124.354c-10.137-2.226-21.328-3.354-33.223-3.354-90.967 0-165 74.019-165 165s74.033 165 165 165c11.836 0 22.998-1.128 32.959-3.296 76.523-15.439 132.041-83.437 132.041-161.704s-55.518-146.265-131.777-161.646zm-108.223 161.646h-30c0-57.891 47.109-105 105-105v30c-41.367 0-75 33.647-75 75zm30 0c0-24.814 20.186-45 45-45s45 20.186 45 45-20.186 45-45 45-45-20.186-45-45zm45 105v-30c41.367 0 75-33.647 75-75h30c0 57.891-47.109 105-105 105z" style="paint-order: fill; fill: url(#gradient-0-0);"/>
  <path d="m45 511h347v-35.684c-2.08.493-3.986 1.377-6.094 1.802-11.718 2.549-24.931 3.882-38.906 3.882-107.52 0-195-87.48-195-195 0-69.501 36.669-130.461 91.558-165h-198.558c-16.952 0-32.428-5.861-45-15.377v360.377c0 24.814 20.186 45 45 45z" style="fill: rgb(21, 61, 103);"/>
</svg>

<?xml version="1.0" encoding="UTF-8" standalone="no"?>
<svg
   xmlns:bx="https://boxy-svg.com"
   xmlns:dc="http://purl.org/dc/elements/1.1/"
   xmlns:cc="http://creativecommons.org/ns#"
   xmlns:rdf="http://www.w3.org/1999/02/22-rdf-syntax-ns#"
   xmlns:svg="http://www.w3.org/2000/svg"
   xmlns="http://www.w3.org/2000/svg"
   xmlns:xlink="http://www.w3.org/1999/xlink"
   xmlns:sodipodi="http://sodipodi.sourceforge.net/DTD/sodipodi-0.dtd"
   xmlns:inkscape="http://www.inkscape.org/namespaces/inkscape"
   id="Layer_1"
   enable-background="new 0 0 512 512"
   height="579.01886"
   viewBox="0 0 583.07874 579.01886"
   width="583.07874"
   version="1.1"
   sodipodi:docname="logo2.svg"
   inkscape:version="1.0.2 (e86c8708, 2021-01-15)">
  <metadata
     id="metadata5020">
    <rdf:RDF>
      <cc:Work
         rdf:about="">
        <dc:format>image/svg+xml</dc:format>
        <dc:type
           rdf:resource="http://purl.org/dc/dcmitype/StillImage" />
        <dc:title></dc:title>
      </cc:Work>
    </rdf:RDF>
  </metadata>
  <sodipodi:namedview
     pagecolor="#ffffff"
     bordercolor="#666666"
     borderopacity="1"
     objecttolerance="10"
     gridtolerance="10"
     guidetolerance="10"
     inkscape:pageopacity="0"
     inkscape:pageshadow="2"
     inkscape:window-width="1440"
     inkscape:window-height="761"
     id="namedview5018"
     showgrid="false"
     inkscape:zoom="0.69973398"
     inkscape:cx="258.14367"
     inkscape:cy="307.67566"
     inkscape:window-x="0"
     inkscape:window-y="25"
     inkscape:window-maximized="0"
     inkscape:current-layer="Layer_1" />
  <defs
     id="defs5007">
    <linearGradient
       id="gradient-2"
       bx:pinned="true">
      <stop
         offset="0"
         style="stop-color: rgb(235, 235, 238);"
         id="stop4995" />
      <stop
         offset="1"
         style="stop-color: rgb(33, 181, 198);"
         id="stop4997" />
    </linearGradient>
    <linearGradient
       id="gradient-0"
       bx:pinned="true">
      <stop
         offset="0"
         style="stop-color: rgb(33, 181, 198);"
         id="stop5000" />
      <stop
         offset="1"
         style="stop-color: rgb(21, 61, 103);"
         id="stop5002" />
    </linearGradient>
    <linearGradient
       id="gradient-0-0"
       gradientUnits="userSpaceOnUse"
       x1="347"
       y1="121"
       x2="347"
       y2="451"
       xlink:href="#gradient-0" />
    <linearGradient
       id="gradient-0-1"
       gradientUnits="userSpaceOnUse"
       x1="347"
       y1="271"
       x2="347"
       y2="301"
       xlink:href="#gradient-0" />
  </defs>
  <rect
     style="fill:#ffffff;fill-rule:evenodd;stroke-width:1.68705"
     id="rect5022"
     width="583.07874"
     height="579.01886"
     x="0"
     y="0"
     rx="20.315353"
     ry="20.173903" />
  <g
     id="g5030"
     transform="translate(35.539368,33.50943)">
    <path
       d="M 392,91 V 1 H 45 C 20.186,1 0,21.186 0,46 0,70.814 20.186,91 45,91 Z"
       style="fill:#153d67"
       id="path5009" />
    <path
       d="m 362,286 c 0,-8.276 -6.738,-15 -15,-15 -8.262,0 -15,6.724 -15,15 0,8.276 6.738,15 15,15 8.262,0 15,-6.724 15,-15 z"
       style="fill:url(#gradient-0-1);paint-order:fill"
       id="path5011" />
    <path
       d="M 380.223,124.354 C 370.086,122.128 358.895,121 347,121 c -90.967,0 -165,74.019 -165,165 0,90.981 74.033,165 165,165 11.836,0 22.998,-1.128 32.959,-3.296 C 456.482,432.265 512,364.267 512,286 512,207.733 456.482,139.735 380.223,124.354 Z M 272,286 h -30 c 0,-57.891 47.109,-105 105,-105 v 30 c -41.367,0 -75,33.647 -75,75 z m 30,0 c 0,-24.814 20.186,-45 45,-45 24.814,0 45,20.186 45,45 0,24.814 -20.186,45 -45,45 -24.814,0 -45,-20.186 -45,-45 z m 45,105 v -30 c 41.367,0 75,-33.647 75,-75 h 30 c 0,57.891 -47.109,105 -105,105 z"
       style="fill:url(#gradient-0-0);paint-order:fill"
       id="path5013" />
    <path
       d="m 45,511 h 347 v -35.684 c -2.08,0.493 -3.986,1.377 -6.094,1.802 C 374.188,479.667 360.975,481 347,481 239.48,481 152,393.52 152,286 152,216.499 188.669,155.539 243.558,121 H 45 C 28.048,121 12.572,115.139 0,105.623 V 466 c 0,24.814 20.186,45 45,45 z"
       style="fill:#153d67"
       id="path5015" />
  </g>
</svg>
